X: 6
T: Man Of Aran
R: reel
M: 4/4
L: 1/8
K: Bmin
|:FBfe dBBB|Aced cAAG|FBfe dBBB|cedc dBBA|
FBfe dBBB|Aced cAAA|ffef dBBB|1cedcdBBA:|2cedcdBBc||
|:dfff dfff|ceee ceee|dfff dffd|cedc dBBc|
dfaf dfaf|cege cege|dfeg fBBB|1cedcdBBc:|2cedcdBBA||


Tune 973	Setting 29024

